X:1
T:I’ll Be Satisfied Then
T:I’ll Be Satisfied Then
T:James H. May
T:George W. Winningham, 1915
T:Public Domain Courtesy of the Cyber Hymnal™
C:James H. May
Z:Public Domain
Z:Courtesy of the Cyber Hymnal™
%%score ( 1 2 ) ( 3 4 )
L:1/8
Q:1/4=103
M:4/4
K:Bb
V:1 treble 
V:2 treble 
V:3 bass 
V:4 bass 
V:1
 ([B,D][CE]) | [DF]2 [DF]2 [DB]2 ([DF][DF]) | [EG]2 [EG]2 [DF]2 [DF]2 | %3
w: 1.~When *|all my tri- als~and *|cares are o’er, When|
w: 2.~When *|I my loved ones *|there shall meet, And|
w: 3.~When *|I shall reach that *|home of rest, To|
 [DB]2 [DB]2 [Fd]2 ([FB][FB]) | [=Ec]2 [Ed]2 !fermata![Fc]2 ([B,D][C_E]) | %5
w: I shall stand on~the *|gold- en shore, If *|
w: with them kneel at *|Je- sus’ feet, If *|
w: dwell with all the *|saved and blest, If *|
 [DF]2 [DF]2 [DB]2 ([DF][DF]) | [EG]2 [EG]2 B4 | [Fd]3 [Ff] [Fd]<[Fd] [Ec]2 | B6 z2 || %9
w: I may hold my *|Sav- ior’s hand,|I’ll be sa- tis- fied|then.|
w: I may rest by~the *|great white throne,|I’ll be sa- tis- fied|then.|
w: I may drink at~the *|fount of life,|I’ll be sa- tis- fied|then.|
"^Refrain" [EB]3 [Ec] [EB]<[EB] [EG]2 | F6 z2 | [Fd]3 [Ff] [Fd]<[Fd] [FB]2 | c6 ([B,D][C_E]) | %13
w: ~ ~ ~ ~ ~|~|~ ~ ~ ~ ~|~ If *|
w: I’ll be sa- tis- fied|then,|I’ll be sa- tis- fied|then, If *|
w: ~ ~ ~ ~ ~|~|~ ~ ~ ~ ~|~ If *|
 [DF]2 [DF]2 [DB]2 ([DF][DF]) | [EG]2 [EG]2 B4 | [Fd]3 [Ff] [Fd]<[DB] [Ec]2 | B4 x2 |] %17
w: I may hold my *|Sav- ior’s hand,|||
w: I may rest by~the *|great white throne,|I’ll be sa- tis- fied|then.|
w: I may drink at~the *|fount of life,|||
V:2
 x2 | x8 | x8 | x8 | x8 | x8 | x4 (E2 G2) | x8 | (D<D E2 D2) x2 || x8 | (D<D C2 D2) x2 | x8 | %12
 (F<F =E2 F2) x2 | x8 | x4 (E2 G2) | x8 | (D<D E2 D2) |] %17
V:3
 [B,,F,]2 | [B,,B,]2 [B,,B,]2 [B,,F,]2 ([B,,B,][B,,B,]) | [E,B,]2 [E,B,]2 [B,,B,]2 [B,,B,]2 | %3
w: |||
 [B,,F,]2 [B,,F,]2 [B,,B,]2 ([D,B,][D,B,]) | [C,G,]2 [C,B,]2 !fermata![F,A,]2 [B,,F,]2 | %5
w: ||
 [B,,B,]2 [B,,B,]2 [B,,F,]2 ([B,,B,][B,,B,]) | [E,B,]2 [E,B,]2 (G,2 B,2) | %7
w: ||
 [F,B,]3 [F,D] [F,B,]<[F,B,] F,2 | F,<F, G,2 F,2 z2 || [E,G,]3 [E,G,] [E,G,]<[E,G,] [E,B,]2 | %10
w: * * * * sa-|tis- fied then, *||
 B,<B, A,2 B,2 z2 | [B,,B,]3 [B,,D] [B,,B,]<[B,,B,] [D,B,]2 | %12
w: ||
 ([F,A,]<[F,A,] [C,G,]2 [F,A,]2) [B,,F,]2 | [B,,B,]2 [B,,B,]2 [B,,F,]2 ([B,,B,][B,,B,]) | %14
w: ||
 [E,B,]2 [E,B,]2 (G,2 B,2) | [F,B,]3 [F,D] [F,B,]<[F,B,] F,2 | (F,<F, G,2 F,2) |] %17
w: |||
V:4
 x2 | x8 | x8 | x8 | x8 | x8 | x4 E,4 | x6 F,2 | B,,6 x2 || x8 | B,,6 x2 | x8 | x8 | x8 | x4 E,4 | %15
 x6 F,2 | B,,6 |] %17

